!!!!SEGMENT: pl-cz--ii-241--004_zeidler-jozef--missa-d-sanctus.krn
!!!cenid: 18xx:299
!!!COM: Zeidler, Józef
!!!COM-rismid: pe30003401
!!!CDT: ~1744-1806
!!!CNT: Polish
!!!OTL: Missa D - Sanctus
!!!PDT: 1818
!!!AGN: Sacred; Mass
!!!SMS-siglum: PL-CZ
!!!SMS-shelfmark: II-241
!!!SMS-shelfwork: 001-004 M
!!!NIFC-rismid:
!!!URL-scan: http://repozytorium.nifc.pl/skany/pl-cz-nut--ii-241
!!!ONB-nifc: UWAGA: części Mszy: Kyrie, Gloria, Patrem, Sanctus, Benedictus, Agnus dei. Dona nobis
**kern	**fba	**dynam	**kern	**dynam	**kern	**dynam	**kern	**text	**dynam	**kern	**text	**kern	**text	**kern	**text	**kern	**dynam	**kern	**dynam
*part9	*	*part9	*part8	*part8	*part7	*part7	*part6	*part6	*part6	*part5	*part5	*part4	*part4	*part3	*part3	*part2	*part2	*part1	*part1
*	*	*	*group3	*	*group3	*	*group2	*	*	*group2	*	*group2	*	*group2	*	*group1	*	*group1	*
*staff9	*	*	*staff8	*	*staff7	*	*staff6	*staff6	*	*staff5	*staff5	*staff4	*staff4	*staff3	*staff3	*staff2	*	*staff1	*
*I"Organo	*	*	*I"Violino Secundo	*	*I"Violino Primo	*	*I"Baſso.	*	*	*I"Tenore	*	*I"Alto	*	*I"Canto.	*	*I"Cornu Secundo in D.	*	*I"Cornu Primo in D.	*
*I'Org.	*	*	*I'V-no II	*	*I'V-no I	*	*I'B.	*	*	*I'T.	*	*I'A.	*	*I'C.	*	*I'C. II in D	*	*I'C. I in D	*
*clefF4	*	*	*clefG2	*	*clefG2	*	*clefF4	*	*	*clefC4	*	*clefC3	*	*clefC1	*	*clefG2	*	*clefG2	*
*	*	*	*	*	*	*	*	*	*	*	*	*	*	*	*	*ITrd6c10	*	*ITrd6c10	*
*k[f#c#]	*	*	*k[f#c#]	*	*k[f#c#]	*	*k[f#c#]	*	*	*k[f#c#]	*	*k[f#c#]	*	*k[f#c#]	*	*k[f#c#]	*	*k[f#c#]	*
*M3/4	*	*	*M3/4	*	*M3/4	*	*M3/4	*	*	*M3/4	*	*M3/4	*	*M3/4	*	*M3/4	*	*M3/4	*
=1	=1	=1	=1	=1	=1	=1	=1	=1	=1	=1	=1	=1	=1	=1	=1	=1	=1	=1	=1
*4\right	*	*	*	*	*	*below	*4\right	*	*	*8\right	*	*4\right	*	*8\right	*	*	*	*	*
!LO:TX:a:i:t=Sanctuſ Adagio Tutti	!	!	!LO:TX:a:i:t=Andante	!	!LO:TX:a:i:t=Andante	!	!LO:TX:a:i:t=Andante	!	!	!	!	!LO:TX:a:i:t=andante	!	!LO:TX:a:t=Andante	!	!LO:TX:a:i:t=Andante	!	!LO:TX:a:i:t=Andate	!LO:DY:t=p.
!	!	!	!	!	!	!	!	!	!	!LO:TX:a:t=P:problem:dziwne krzyżyki przy kluczu	!	!LO:TX:a:t=P:problem:dziwne krzyżyki przy kluczu	!	!LO:TX:a:t=P:problem:w źródle krzyżyk cis oktawę wyżej	!	!	!	!	!
!	!	!	!	!	!	!LO:DY:rj:t=f	!LO:TX:b:t=P:problem:"S" przed kluczem i znakami	!	!LO:TX:b:t=P:problem:"S" przed kluczem i znakami	!	!	!LO:TX:b:t=P:problem:"S" przed kluczem i znakami	!	!LO:TX:b:t=P:problem:"S" przed kluczem i znakami	!	!	!	!	!
4D\	.	f	8d/L	.	4dd 4d/	f	4D\	[S]an-	.	8.f#\L	[S]an-	4a\	[S]an-	8.dd\L	[S]an-	4F#/	f	4d 4F#/	p
.	.	.	8f#/J	f	.	.	.	.	.	.	.	.	.	.	.	.	.	.	.
*	*	*	*	*	*	*	*	*	*	*16\right	*	*	*	*16\right	*	*	*	*	*
.	.	.	.	.	.	.	.	.	.	16e\Jk	.	.	.	16cc#\Jk	.	.	.	.	.
*	*	*	*	*	*	*	*	*	*	*4\right	*	*	*	*4\right	*	*	*	*	*
4D\	.	.	8r	.	8r	.	4D\	-ctus	.	4f#\	-ctuſ	4a\	-ctus	4dd\	-ctus	4F#/	.	4d 4F#/	.
*	*	*	*	*	*8\right	*	*	*	*	*	*	*	*	*	*	*	*	*	*
!	!	!	!	!	!	!LO:DY:t=p	!	!	!	!	!	!	!	!	!	!	!	!	!
.	.	.	(8f#/L	p	&(8dd\L	p	.	.	.	.	.	.	.	.	.	.	.	.	.
4r	.	.	8b/	.	8gg\	.	4r	.	.	4r	.	4r	.	4r	.	4r	.	4r	.
.	.	.	8a/J)	.	&&(8ff#\J	.	.	.	.	.	.	.	.	.	.	.	.	.	.
=2	=2	=2	=2	=2	=2	=2	=2	=2	=2	=2	=2	=2	=2	=2	=2	=2	=2	=2	=2
!	!	!	!	!	!	!	!LO:TX:a:t=1	!	!	!	!	!LO:TX:a:t=1	!	!LO:TX:a:t=1	!	!LO:TX:a:t=1	!	!	!
!LO:N:vis=1	!	!	!	!	!	!	!LO:N:vis=1	!	!	!LO:N:vis=1	!	!LO:N:vis=1	!	!LO:N:vis=1	!	!LO:N:vis=1	!	!LO:N:vis=1	!
2.r	.	.	(8g/L	.	(8ee\L&)	.	2.r	.	.	2.r	.	2.r	.	2.r	.	2.r	.	2.r	.
.	.	.	8f#/	.	8dd\&&)	.	.	.	.	.	.	.	.	.	.	.	.	.	.
.	.	.	8e/	.	8cc#\	.	.	.	.	.	.	.	.	.	.	.	.	.	.
.	.	.	8f#/	.	8dd\	.	.	.	.	.	.	.	.	.	.	.	.	.	.
.	.	.	8g/	.	8ee\	.	.	.	.	.	.	.	.	.	.	.	.	.	.
.	.	.	8f#/J)	.	8dd\J	.	.	.	.	.	.	.	.	.	.	.	.	.	.
=3	=3	=3	=3	=3	=3	=3	=3	=3	=3	=3	=3	=3	=3	=3	=3	=3	=3	=3	=3
.	.	.	.	.	8qqdd/	f	.	.	.	.	.	.	.	.	.	.	.	.	.
!	!	!LO:DY:t=fo	!	!	!	!	!	!	!	!	!	!	!	!	!	!	!LO:DY:t=p.	!	!LO:DY:t=p.
*	*	*	*	*	*4\right	*	*	*ij	*	*	*	*	*ij	*	*	*	*	*	*
4A\	.	f	4e/	f	4cc#\)	.	4A\	San-	.	8.e\L	San-	4a\	San-	8.cc#\L	San-	4A/	p	4e 4A/	p
.	.	.	.	.	.	.	.	.	.	16d\Jk	.	.	.	16b\Jk	.	.	.	.	.
4AA/	.	.	4r	.	8r	.	4AA/	-ctus	.	4e\	-ctuſ	4a\	-ctus	4cc#\	-ctus	4A/	.	4e 4A/	.
.	.	.	.	.	8cc#\L	.	.	.	.	.	.	.	.	.	.	.	.	.	.
4r	.	.	4c#/	p	8ff#\	.	4r	.	.	4r	.	4r	.	4r	.	4r	.	4r	.
.	.	.	.	.	8ee\J	.	.	.	.	.	.	.	.	.	.	.	.	.	.
=4	=4	=4	=4	=4	=4	=4	=4	=4	=4	=4	=4	=4	=4	=4	=4	=4	=4	=4	=4
!	!	!	!	!	!	!	!	!	!	!	!	!LO:TX:a:t=1	!	!	!	!LO:TX:a:t=1	!	!LO:TX:a:t=1	!
!LO:N:vis=1	!	!	!	!	!	!LO:DY:t=p.	!LO:N:vis=1	!	!	!LO:N:vis=1	!	!LO:N:vis=1	!	!LO:N:vis=1	!	!LO:N:vis=1	!	!LO:N:vis=1	!
2.r	.	.	8f#/L	.	(8dd\L	p	2.r	.	.	2.r	.	2.r	.	2.r	.	2.r	.	2.r	.
.	.	.	(8e/	.	8cc#\	.	.	.	.	.	.	.	.	.	.	.	.	.	.
.	.	.	8g/	.	8ee\	.	.	.	.	.	.	.	.	.	.	.	.	.	.
.	.	.	8f#/	.	8dd\	.	.	.	.	.	.	.	.	.	.	.	.	.	.
.	.	.	8e/)	.	8cc#\	.	.	.	.	.	.	.	.	.	.	.	.	.	.
.	.	.	8d/J	.	8b\J)	.	.	.	.	.	.	.	.	.	.	.	.	.	.
=5	=5	=5	=5	=5	=5	=5	=5	=5	=5	=5	=5	=5	=5	=5	=5	=5	=5	=5	=5
.	.	.	.	.	8qqb/	f	.	.	.	.	.	.	.	.	.	.	.	.	.
!	!	!LO:DY:t=for.	!	!LO:DY:rj	!	!	!	!	!	!	!	!	!	!	!	!	!LO:DY:t=p.	!	!LO:DY:t=p.
4F#\	#	f	4c#/	f	4a#X/	.	4F#\	San-	.	4f#\	San-	4a#X\	San-	4cc#\	San-	4F#/	p	4F#/	p
4F#\	.	.	4c#/	.	8r	.	4F#\	-ctus	.	4f#\	-ctus	4a#\	-ctus	4cc#\	-ctus	4F#/	.	4F#/	.
*	*	*	*	*	*	*	*	*Xij	*	*	*	*	*Xij	*	*	*	*	*	*
!	!	!	!	!	!LO:TX:a:t=P:problem:mixed beam	!	!	!	!	!	!	!	!	!	!	!	!	!	!
.	.	.	.	.	8f#/L	.	.	.	.	.	.	.	.	.	.	.	.	.	.
4r	.	.	8r	.	8ff#\	.	4r	.	.	4r	.	4r	.	4r	.	4r	.	4r	.
.	.	.	8a#X/	.	8ff#\J	.	.	.	.	.	.	.	.	.	.	.	.	.	.
=6	=6	=6	=6	=6	=6	=6	=6	=6	=6	=6	=6	=6	=6	=6	=6	=6	=6	=6	=6
!	!	!	!	!	!	!	!	!	!	!	!	!	!	!	!	!LO:TX:a:t=3	!	!LO:TX:a:t=3	!
!	!	!	!	!	!	!	!	!	!	!	!	!	!	!	!	!LO:N:vis=0	!	!LO:N:vis=0	!
*	*	*	*4\right	*	*	*	*8\right	*	*	*	*	*8\right	*	*	*	*	*	*	*
4G\	7	.	4b\	.	(8ff#\L	.	8G\	Do-	.	8f#\	Do-	8b\	Do-	8ff#\	Do-	1.r	.	1.r	.
.	.	.	.	.	8b\J)	.	8G\	-mi-	.	8d\	-mi-	8b\	-mi-	8ff#\	-mi-	.	.	.	.
*	*	*	*	*	*2\right	*	*2\right	*	*	*2\right	*	*2\right	*	*2\right	*	*	*	*	*
8r	.	.	8r	.	[2ee\	.	2G\	-nus	.	2e\	-nus	2b\	-nus	2ee\	-nus	.	.	.	.
*8\right	*	*	*8\right	*	*	*	*	*	*	*	*	*	*	*	*	*	*	*	*
8G\L	6	.	8b\L	.	.	.	.	.	.	.	.	.	.	.	.	.	.	.	.
8G\	.	.	8b\	.	.	.	.	.	.	.	.	.	.	.	.	.	.	.	.
8G\J	.	.	8b\J	.	.	.	.	.	.	.	.	.	.	.	.	.	.	.	.
=7	=7	=7	=7	=7	=7	=7	=7	=7	=7	=7	=7	=7	=7	=7	=7	=7	=7	=7	=7
4F#\	7	.	4a\	.	8ee\L]	.	4F#\	De-	.	8e\L	De-	4a\	De-	4ee\	De-	.	.	.	.
.	.	.	.	.	8a\J	.	.	.	.	8c#\J	.	.	.	.	.	.	.	.	.
8r	.	.	8r	.	[2dd\	.	2F#\	-us	.	2d\	-us	2a\	-us	2dd\	-us	.	.	.	.
8F#\L	6	.	8a\L	.	.	.	.	.	.	.	.	.	.	.	.	.	.	.	.
8F#\	.	.	8a\	.	.	.	.	.	.	.	.	.	.	.	.	.	.	.	.
8F#\J	.	.	8a\J	.	.	.	.	.	.	.	.	.	.	.	.	.	.	.	.
=8	=8	=8	=8	=8	=8	=8	=8	=8	=8	=8	=8	=8	=8	=8	=8	=8	=8	=8	=8
!	!	!	!	!	!	!	!	!	!	!	!	!	!	!	!	!LO:N:vis=1	!	!LO:N:vis=1	!
4E\	7	.	4g/	.	8dd\]	.	2E\	Sa-	.	(4d\	Sa-	2g\	Sa-	(4dd\	Sa-	2.r	.	2.r	.
.	.	.	.	.	4cc#\	.	.	.	.	.	.	.	.	.	.	.	.	.	.
4E\	6	.	4g/	.	.	.	.	.	.	4c#\)	.	.	.	4cc#\	.	.	.	.	.
.	.	.	.	.	8dd\L	.	.	.	.	.	.	.	.	.	.	.	.	.	.
4E#X\	5	.	4g#X/	.	8cc#\	.	4E#X\	-ba-	.	4c#\	-ba-	4g#X\	-ba-	4b\)	-ba-	.	.	.	.
.	.	.	.	.	8b\J	.	.	.	.	.	.	.	.	.	.	.	.	.	.
=9	=9	=9	=9	=9	=9	=9	=9	=9	=9	=9	=9	=9	=9	=9	=9	=9	=9	=9	=9
!	!	!	!	!	!LO:TX:a:t=P:problem:mixed beam	!	!	!	!	!	!	!	!	!	!	!LO:TX:b:t=+	!	!	!
.	.	.	.	.	.	.	.	.	.	.	.	.	.	8qqb/	.	.	.	.	.
!	!	!	!	!	!	!	!	!	!	!	!	!	!	!LO:TX:a:i:t=Dolce	!	!	!	!	!
*2\right	*	*	*	*	*	*	*	*	*	*	*	*	*	*	*	*	*	*	*
2F#\	#	.	8c#/L	.	8ff#\L	.	4F#\	-oth	.	2c#\	-oth	2f#\	-oth	2a#X\	-oth	4F#/	.	4F#/	p
!	!	!	!LO:SIC:s=16A#:v	!	!	!	!	!	!	!	!	!	!	!	!	!	!	!	!
.	.	.	16A/L	.	16f#/L	.	.	.	.	.	.	.	.	.	.	.	.	.	.
.	.	.	16B/JJ	.	16g#X/JJ	.	.	.	.	.	.	.	.	.	.	.	.	.	.
!	!	!	!LO:SIC:s=4A#:v	!	!	!	!	!	!	!	!	!	!	!	!	!	!	!	!
.	.	.	4A/	.	4f#/	.	2r	.	.	.	.	.	.	.	.	4F#/	.	4F#/	.
4r	.	.	4r	.	4r	.	.	.	.	4r	.	4r	.	4r	.	4r	.	4r	.
=10	=10	=10	=10	=10	=10	=10	=10	=10	=10	=10	=10	=10	=10	=10	=10	=10	=10	=10	=10
!	!	!	!LO:LB:g=original	!	!LO:LB:g=original	!	!	!	!	!	!	!	!	!	!	!	!	!	!
!LO:TX:a:t=7.	!	!	!	!	!	!	!LO:TX:a:t=7	!	!	!LO:TX:a:t=7	!	!LO:TX:a:t=7	!	!	!	!LO:TX:a:t=7	!	!LO:TX:a:t=7	!
!LO:N:vis=00	!	!	!	!LO:DYLt=pian	!	!LO:DY:t=p	!LO:N:vis=00	!	!	!LO:N:vis=00	!	!LO:N:vis=00	!	!	!	!LO:N:vis=00	!	!LO:N:vis=00	!
0.r	.	.	8r	p	8r	p	0.r	.	.	0.r	.	0.r	.	2ff#\	San-	0.r	.	0.r	.
.	.	.	8f#/L	.	8a#X/L	.	.	.	.	.	.	.	.	.	.	.	.	.	.
.	.	.	8f#/	.	8a#/	.	.	.	.	.	.	.	.	.	.	.	.	.	.
.	.	.	8f#/	.	8a#/	.	.	.	.	.	.	.	.	.	.	.	.	.	.
.	.	.	8f#/	.	8a#/	.	.	.	.	.	.	.	.	8gg\L	-ctus	.	.	.	.
.	.	.	8f#/J	.	8a#/J	.	.	.	.	.	.	.	.	8ff#\J	.	.	.	.	.
=11	=11	=11	=11	=11	=11	=11	=11	=11	=11	=11	=11	=11	=11	=11	=11	=11	=11	=11	=11
*	*	*	*	*	*	*	*	*	*	*	*	*	*	*	*ij	*	*	*	*
.	.	.	8r	.	8r	.	.	.	.	.	.	.	.	8ff#\L	San-	.	.	.	.
*	*	*	*tremolo	*	*	*	*	*	*	*	*	*	*	*	*	*	*	*	*
!	!	!	!LO:TX:b:t=P:problem:cztery kropki pod nutą	!	!	!	!	!	!	!	!	!	!	!	!	!	!	!	!
!	!	!	!LO:TX:a:t=P:problem:złe wyświetlanie wartości rytmicznej tremolo	!	!	!	!	!	!	!	!	!	!	!	!	!	!	!	!
!	!	!	!LO:N:TREM:vis=2.	!	!	!	!	!	!	!	!	!	!	!	!	!	!	!	!
.	.	.	8g#X'/L	.	8b\	.	.	.	.	.	.	.	.	8ee#X\J	.	.	.	.	.
*	*	*	*	*	*tremolo	*	*	*	*	*	*	*	*	*	*	*	*	*	*
.	.	.	8g#'/	.	8b\L	.	.	.	.	.	.	.	.	2ee#\	-ctus	.	.	.	.
*	*	*	*	*	*	*	*	*	*	*	*	*	*	*	*Xij	*	*	*	*
.	.	.	8g#'/	.	8b\	.	.	.	.	.	.	.	.	.	.	.	.	.	.
.	.	.	8g#'/	.	8b\	.	.	.	.	.	.	.	.	.	.	.	.	.	.
.	.	.	8g#'/J	.	8b\J	.	.	.	.	.	.	.	.	.	.	.	.	.	.
=12	=12	=12	=12	=12	=12	=12	=12	=12	=12	=12	=12	=12	=12	=12	=12	=12	=12	=12	=12
.	.	.	8r	.	8r	.	.	.	.	.	.	.	.	(4.een\	San-	.	.	.	.
!	!	!	!LO:TX:a:t=P:problem:złe wyświetlanie wartości rytmicznej tremolo	!	!	!	!	!	!	!	!	!	!	!	!	!	!	!	!
!	!	!	!LO:N:TREM:vis=2.	!	!	!	!	!	!	!	!	!	!	!	!	!	!	!	!
.	.	.	8a#X/L	.	8cc#\	.	.	.	.	.	.	.	.	.	.	.	.	.	.
.	.	.	8a#/	.	8cc#\L	.	.	.	.	.	.	.	.	.	.	.	.	.	.
.	.	.	8a#/	.	8cc#\	.	.	.	.	.	.	.	.	16ff#\LL	.	.	.	.	.
.	.	.	.	.	.	.	.	.	.	.	.	.	.	16gg\JJ)	.	.	.	.	.
.	.	.	8a#/	.	8cc#\	.	.	.	.	.	.	.	.	8ff#\L	-ctus	.	.	.	.
.	.	.	8a#/J	.	8cc#\J	.	.	.	.	.	.	.	.	8ee\J	.	.	.	.	.
=13	=13	=13	=13	=13	=13	=13	=13	=13	=13	=13	=13	=13	=13	=13	=13	=13	=13	=13	=13
.	.	.	8r	.	8r	.	.	.	.	.	.	.	.	8ee\L	San-	.	.	.	.
*	*	*	*2\right	*	*	*	*	*	*	*	*	*	*	*	*	*	*	*	*
!	!	!	!LO:TX:a:t=P:problem:złe wyświetlanie wartości rytmicznej tremolo	!	!	!	!	!	!	!	!	!	!	!	!	!	!	!	!
!	!	!	!LO:N:TREM:vis=2.	!	!	!	!	!	!	!	!	!	!	!	!	!	!	!	!
.	.	.	8b\L	.	8dd\	.	.	.	.	.	.	.	.	8dd\J	.	.	.	.	.
.	.	.	8b\	.	8dd\L	.	.	.	.	.	.	.	.	2dd\	-ctus	.	.	.	.
.	.	.	8b\	.	8dd\	.	.	.	.	.	.	.	.	.	.	.	.	.	.
.	.	.	8b\	.	8dd\	.	.	.	.	.	.	.	.	.	.	.	.	.	.
.	.	.	8b\J	.	8dd\J	.	.	.	.	.	.	.	.	.	.	.	.	.	.
*	*	*	*Xtremolo	*	*Xtremolo	*	*	*	*	*	*	*	*	*	*	*	*	*	*
=14	=14	=14	=14	=14	=14	=14	=14	=14	=14	=14	=14	=14	=14	=14	=14	=14	=14	=14	=14
!	!	!	!	!	!	!	!	!	!	!	!	!	!	!LO:LB:g=original	!	!	!	!	!
!LO:N:vis=0	!	!	!	!	!	!	!LO:N:vis=0	!	!	!LO:N:vis=0	!	!LO:N:vis=0	!	!	!	!LO:N:vis=0	!	!LO:N:vis=0	!
1.r	.	.	8r	.	8r	.	1.r	.	.	1.r	.	1.r	.	4.gg\	Do-	1.r	.	1.r	.
.	.	.	8b\L	.	8dd\L	.	.	.	.	.	.	.	.	.	.	.	.	.	.
.	.	.	8b\	.	8dd\	.	.	.	.	.	.	.	.	.	.	.	.	.	.
.	.	.	8b'\	.	8dd\	.	.	.	.	.	.	.	.	8gg\	-mi-	.	.	.	.
.	.	.	8a'\	.	8cc#\	.	.	.	.	.	.	.	.	4ff#\	-nus	.	.	.	.
.	.	.	8a'\J	.	8cc#\J	.	.	.	.	.	.	.	.	.	.	.	.	.	.
=15	=15	=15	=15	=15	=15	=15	=15	=15	=15	=15	=15	=15	=15	=15	=15	=15	=15	=15	=15
.	.	.	.	.	.	.	.	.	.	.	.	.	.	8qqee/	.	.	.	.	.
.	.	.	8r	.	8r	.	.	.	.	.	.	.	.	2ee\	De-	.	.	.	.
.	.	.	8g/L	.	8b\L	.	.	.	.	.	.	.	.	.	.	.	.	.	.
.	.	.	8g/	.	8b\	.	.	.	.	.	.	.	.	.	.	.	.	.	.
.	.	.	8g/	.	8b\	.	.	.	.	.	.	.	.	.	.	.	.	.	.
.	.	.	8f#/	.	8a\	.	.	.	.	.	.	.	.	4dd\	-us	.	.	.	.
.	.	.	8f#/J	.	8a\J	.	.	.	.	.	.	.	.	.	.	.	.	.	.
=16	=16	=16	=16	=16	=16	=16	=16	=16	=16	=16	=16	=16	=16	=16	=16	=16	=16	=16	=16
!LO:N:vis=1	!	!	!	!	!	!	!LO:N:vis=1	!	!	!LO:N:vis=1	!	!LO:N:vis=1	!	!	!	!LO:N:vis=1	!	!LO:N:vis=1	!
2.r	.	.	8e/L	.	8g/L	.	2.r	.	.	2.r	.	2.r	.	(4cc#\	Sa-	2.r	.	2.r	.
.	.	.	8e/	.	8g/	.	.	.	.	.	.	.	.	.	.	.	.	.	.
.	.	.	8d/	.	8f#/	.	.	.	.	.	.	.	.	4dd\)	ba-	.	.	.	.
.	.	.	8d/	.	8f#/	.	.	.	.	.	.	.	.	.	.	.	.	.	.
.	.	.	8G#X/	.	8d/	.	.	.	.	.	.	.	.	4f#/	.	.	.	.	.
.	.	.	8G#/J	.	8d/J	.	.	.	.	.	.	.	.	.	.	.	.	.	.
=17	=17	=17	=17	=17	=17	=17	=17	=17	=17	=17	=17	=17	=17	=17	=17	=17	=17	=17	=17
.	.	.	.	.	8qqd/	f	.	.	.	.	.	.	.	8qqf#/	.	.	.	.	.
!	!	!	!	!	!	!	!	!	!	!	!	!	!	!	!	!	!LO:DY:t=p.	!	!
4A\	.	f	4A/	f	4c#/	.	4A\	San-	.	4c#\	San-	4e\	San-	2e/	-oth	4A/	p	4A/	.
4AA/	.	.	8r	.	8r	.	4AA/	-ctuſ	.	4c#\	-ctus	4e\	-ctus	.	.	4A/	.	4A/	.
.	.	.	8c#/L	p	(8a/L	p	.	.	.	.	.	.	.	.	.	.	.	.	.
4r	.	.	8f#/	.	8dd/	.	4r	.	.	4r	.	4r	.	4r	.	4r	.	4r	.
.	.	.	8e/J	.	8cc#/J)	.	.	.	.	.	.	.	.	.	.	.	.	.	.
=18	=18	=18	=18	=18	=18	=18	=18	=18	=18	=18	=18	=18	=18	=18	=18	=18	=18	=18	=18
!	!	!	!	!	!	!	!LO:LB:g=original	!	!	!LO:LB:g=original	!	!	!	!	!	!	!	!	!
*	*	*	*	*	*	*	*	*ij	*	*	*	*	*ij	*	*	*	*	*	*
!LO:TX:a:t=P:problem:znak repetycji na początku taktu	!	!LO:DY:t=fo	!	!	!	!	!	!	!	!	!	!	!	!	!	!	!	!	!
4A\	.	f	8d/L	f	8b/L	f	4A\	San-	.	4e`\	San-	4a\	San-	4cc#\	San-	4A/	.	4A/	.
.	.	.	8c#/J	.	8a/J	.	.	.	.	.	.	.	.	.	.	.	.	.	.
4AA/	.	.	8r	.	8r	.	4AA/	-ctuſ	.	4e\	-ctuſ	4a\	-ctus	4cc#\	-ctus	4A/	.	4A/	.
!	!	!	!LO:TX:a:t=P:problem:mixed beam	!	!LO:DY:t=p	!	!	!	!	!	!	!	!	!	!	!	!	!	!
.	.	.	8c#/L	p	(8a\L	p	.	.	.	.	.	.	.	.	.	.	.	.	.
4r	.	.	8dd\	.	8ff#\)	.	4r	.	.	4r	.	4r	.	4r	.	4r	.	4r	.
!LO:TX:a:t=P:problem:znak repetycji na końcu taktu	!	!	!	!	!	!	!	!	!	!	!	!	!	!	!	!	!	!	!
.	.	.	8cc#\J	.	8ee\J	.	.	.	.	.	.	.	.	.	.	.	.	.	.
=19	=19	=19	=19	=19	=19	=19	=19	=19	=19	=19	=19	=19	=19	=19	=19	=19	=19	=19	=19
!	!	!	!LO:LB:g=original	!	!	!	!	!	!	!	!	!	!	!	!	!	!	!	!
!LO:TX:a:t=P:problem:takt zapisany repetycją	!	!LO:DY:t=fo	!	!	!	!	!	!	!	!	!	!	!	!	!	!	!	!	!
4A\yy	.	.	8b\L	.	(8dd\L	f	4A\	San-	.	4e`\	San-	4a\	San-	4cc#\	San-	4A/	.	4A/	.
.	.	.	8a\J	.	8cc#\J)	.	.	.	.	.	.	.	.	.	.	.	.	.	.
4AA/yy	.	.	4a\	.	8r	.	4AA/	-ctuſ	.	4e\	-ctuſ	4a\	-ctus	4cc#\	-ctus	4A/	.	4A/	.
*	*	*	*	*	*	*	*	*Xij	*	*	*	*	*Xij	*	*	*	*	*	*
!	!	!	!	!	!LO:TX:a:t=P:problem:mixed beam	!	!	!	!	!	!	!	!	!	!	!	!	!	!
.	.	.	.	.	8a/L	.	.	.	.	.	.	.	.	.	.	.	.	.	.
4ryy	.	.	8r	.	8aa\	.	4r	.	.	4r	.	4r	.	4r	.	4r	.	4r	.
.	.	.	8cc#\	.	8aa\J	.	.	.	.	.	.	.	.	.	.	.	.	.	.
=20	=20	=20	=20	=20	=20	=20	=20	=20	=20	=20	=20	=20	=20	=20	=20	=20	=20	=20	=20
!	!	!	!	!	!	!	!	!	!	!	!	!	!	!	!	!LO:TX:a:t=3	!	!LO:TX:a:t=3	!
!	!	!LO:DY:t=p	!	!	!	!	!	!	!	!	!	!	!	!	!	!LO:N:vis=0	!	!LO:N:vis=0	!
4B\	7	p	4dd\	.	8aa\L	.	8B\	Do-	.	8d\	Do-	8b\	Do-	8aa\	Do-	1.r	.	1.r	.
.	.	.	.	.	8dd\J	.	8B\	-mi-	.	8d\	-mi-	8b\	-mi-	8dd\	-mi-	.	.	.	.
8r	.	.	8r	.	[2gg\	.	2B\	-nus	.	2d\	-nus	2g\	-nus	2gg\	-nus	.	.	.	.
8B\L	6	.	8dd\L	.	.	.	.	.	.	.	.	.	.	.	.	.	.	.	.
8B\	.	.	8dd\	.	.	.	.	.	.	.	.	.	.	.	.	.	.	.	.
8B\J	.	.	8dd\J	.	.	.	.	.	.	.	.	.	.	.	.	.	.	.	.
=21	=21	=21	=21	=21	=21	=21	=21	=21	=21	=21	=21	=21	=21	=21	=21	=21	=21	=21	=21
!	!	!	!	!	!LO:LB:g=original	!	!	!	!	!	!	!LO:LB:g=original	!	!	!	!	!	!	!
!	!	!	!	!	!	!	!LO:N:vis=8	!	!	!	!	!	!	!	!	!	!	!	!
4A\	6	.	4cc#\	.	8gg\L]	.	4A\	De-	.	2c#\	De-	4a\	De-	8gg\L	De-	.	.	.	.
.	.	.	.	.	8cc#\J	.	.	.	.	.	.	.	.	8cc#\J	.	.	.	.	.
8r	.	.	8r	.	[2ff#\	.	2A\	-us	.	.	.	2f#\	-us	2ff#\	-us	.	.	.	.
8A\L	.	.	8cc#\L	.	.	.	.	.	.	.	.	.	.	.	.	.	.	.	.
8A\	.	.	8cc#\	.	.	.	.	.	.	4c#`\	-us	.	.	.	.	.	.	.	.
8A\J	.	.	8cc#\J	.	.	.	.	.	.	.	.	.	.	.	.	.	.	.	.
=22	=22	=22	=22	=22	=22	=22	=22	=22	=22	=22	=22	=22	=22	=22	=22	=22	=22	=22	=22
!LO:TX:a:t=P:problem:pionowa kreska przed 6 w b.c.	!	!	!	!	!	!	!	!	!	!	!	!	!	!	!	!LO:N:vis=1	!	!LO:N:vis=1	!
*	*	*	*tremolo	*	*	*	*	*	*	*	*	*	*	*	*	*	*	*	*
2.G\	6	.	8b\L	.	4ff#\]	.	2G\	Sa-	.	2d\	Sa-	2b\	Sa-	4ff#\	Sa-	2.r	.	2.r	.
.	.	.	8b\	.	.	.	.	.	.	.	.	.	.	.	.	.	.	.	.
.	5	.	8b\	.	8ee\L	.	.	.	.	.	.	.	.	(8ee\L	.	.	.	.	.
.	.	.	8b\	.	8dd\J	.	.	.	.	.	.	.	.	8dd\J)	.	.	.	.	.
.	6	.	8b\	.	4ee\	.	4G\	-ba-	.	4c#\	-ba-	4b\	-ba-	4ee\	-ba-	.	.	.	.
.	.	.	8b\J	.	.	.	.	.	.	.	.	.	.	.	.	.	.	.	.
*	*	*	*Xtremolo	*	*	*	*	*	*	*	*	*	*	*	*	*	*	*	*
=23	=23	=23	=23	=23	=23	=23	=23	=23	=23	=23	=23	=23	=23	=23	=23	=23	=23	=23	=23
!	!	!	!	!	!	!	!	!	!	!	!	!	!	!	!	!	!	!LO:LB:g=original	!
2F#\	#	.	8a#X\L	.	8ff#\L	.	2.F#\	-oth	.	2.c#\	-oth	2.a#X\	-oth	2.ff#\	-oth	2F#/	.	2F#/	.
.	.	.	8cc#\	.	8cc#\	.	.	.	.	.	.	.	.	.	.	.	.	.	.
.	.	.	8ff#\	.	8ff#\	.	.	.	.	.	.	.	.	.	.	.	.	.	.
.	.	.	8cc#\	.	8cc#\	.	.	.	.	.	.	.	.	.	.	.	.	.	.
4r	.	.	8a#\	.	8a#X\	.	.	.	.	.	.	.	.	.	.	4r	.	4r	.
.	.	.	8cc#\J	.	8cc#\J	.	.	.	.	.	.	.	.	.	.	.	.	.	.
=24	=24	=24	=24	=24	=24	=24	=24	=24	=24	=24	=24	=24	=24	=24	=24	=24	=24	=24	=24
!	!	!	!	!	!	!	!	!	!	!LO:TX:a:t=1	!	!	!	!	!	!	!	!	!
!	!	!	!	!	!	!	!LO:N:vis=1	!	!	!LO:N:vis=1	!	!LO:N:vis=1	!	!LO:N:vis=1	!	!LO:TX:a:t=P:problem:takt nieczytelny, rkp zalany	!	!	!
2.F#\	.	.	2.f#/	.	2.f#/	.	2.r	.	.	2.r	.	2.r	.	2.r	.	2F#/yy	.	2.F#/	.
.	.	.	.	.	.	.	.	.	.	.	.	.	.	.	.	4ryy	.	.	.
=25||	=25||	=25||	=25||	=25||	=25||	=25||	=25||	=25||	=25||	=25||	=25||	=25||	=25||	=25||	=25||	=25||	=25||	=25||	=25||
*M3/4	*	*	*M3/4	*	*M3/4	*	*M3/4	*	*	*M3/4	*	*M3/4	*	*M3/4	*	*M3/4	*	*M3/4	*
*	*	*	*16\right	*	*16\right	*	*	*	*	*	*	*	*	*	*	*2\right	*	*2\right	*
!	!	!	!	!	!	!	!	!	!	!	!	!	!	!	!	!LO:TX:b:i:t=m.	!	!	!
!	!	!	!	!	!	!	!	!	!	!	!	!	!	!	!	!LO:TX:b:i:t=Pleni	!	!	!
!LO:TX:b:i:t=Pleni a Osana	!	!	!LO:TX:b:i:t=Allo	!	!LO:TX:a:i:t=Allo	!	!	!	!	!	!	!	!	!	!	!LO:TX:a:i:t=Allo	!	!LO:TX:a:i:t=Allo	!
!LO:TX:a:i:t=Allo	!	!	!LO:TX:a:i:t=Ple	!	!LO:TX:b:i:t=Pleni et Osanna	!	!LO:TX:a:i:t=Allo	!	!	!LO:TX:a:i:t=Allo	!	!	!	!	!	!LO:TX:a:i:t=Pleni	!	!LO:TX:a:i:t=Pleni	!
!	!	!LO:DY:t=mf	!	!	!	!	!	!	!	!	!	!LO:TX:a:t=P:problem:znak repetycji na początku taktu	!	!	!	!LO:TX:a:t=P:problem:znak repetycji na początku taktu	!	!	!
4D\	.	mf	16ff#\LL	.	(16ff#\LL	mf	4D\	Ple-	.	4d\	Ple-	4a\	Ple-	16ff#\LL	Ple-	2d\	.	2f# 2d\	<
.	.	.	16ee\	.	16ee\	.	.	.	.	.	.	.	.	16ee\	.	.	.	.	.
!	!	!	!	!LO:DY:t=mf	!	!	!	!	!	!	!	!	!	!	!	!	!	!	!
.	.	.	16ff#\	mf	16ff#\	.	.	.	.	.	.	.	.	16ff#\	.	.	.	.	.
.	.	.	16gg\JJ	.	16gg\JJ)	.	.	.	.	.	.	.	.	16gg\JJ	.	.	.	.	.
4F#\	6	.	4aa\	.	4aa\	.	4F#\	-ni	.	4d\	-ni	4a\	-ni	4aa\	-ni	.	.	.	.
*	*	*	*	*	*	*	*	*	*	*	*	*	*	*	*	*4\right	*	*4\right	*
4D\	.	.	4dd\	.	4dd\	.	4D\	sunt	.	4f#\	sunt	4a\	sunt	4dd\	sunt	4d\	.	4f# 4d\	.
=26	=26	=26	=26	=26	=26	=26	=26	=26	=26	=26	=26	=26	=26	=26	=26	=26	=26	=26	=26
4G\	4 2	.	8.ee\L	.	8.ee\L	.	4G\	Coe-	.	4e\	coe-	4a\	coe-	4cc#\	Coe-	4A/	.	4e 4A/	.
.	.	.	16cc#\K	.	16cc#\Jk	.	.	.	.	.	.	.	.	.	.	.	.	.	.
4F#\	6	.	8dd\	.	8dd\L	.	4F#\	-li	.	4f#\	-li	4a\	-li	4dd\	-li	4d\	.	4f# 4d\	.
.	.	.	8ee\	.	8cc#\	.	.	.	.	.	.	.	.	.	.	.	.	.	.
4r	.	.	8ff#\	.	8dd\	.	4r	.	.	4r	.	4r	.	4r	.	4r	.	4r	.
!	!	!	!	!	!	!	!	!	!	!	!	!	!	!	!	!LO:TX:a:t=P:problem:znak repetycji na końcu taktu	!	!	!
.	.	.	8gg\J	.	8ee\J	.	.	.	.	.	.	.	.	.	.	.	.	.	.
=27	=27	=27	=27	=27	=27	=27	=27	=27	=27	=27	=27	=27	=27	=27	=27	=27	=27	=27	=27
!	!	!	!	!	!	!	!	!	!	!	!	!	!	!	!	!LO:LB:g=original	!	!	!
!	!	!	!	!	!	!	!	!	!	!	!	!	!	!	!	!LO:TX:a:t=P:problem:takty 27-28 zapisane repetycją	!	!	!
4D\	.	.	(16ff#\LL	.	(16ff#\LL	.	4D\	Coe-	.	4d\	coe-	4a\	coe-	16ff#\LL	Coe-	2d\yy	.	2f# 2d\	.
.	.	.	16ee\	.	16ee\	.	.	.	.	.	.	.	.	16ee\	.	.	.	.	.
.	.	.	16ff#\	.	16ff#\	.	.	.	.	.	.	.	.	16ff#\	.	.	.	.	.
.	.	.	16gg\JJ)	.	16gg\JJ)	.	.	.	.	.	.	.	.	16gg\JJ	.	.	.	.	.
4F#\	6	.	4aa\	.	4aa\	.	4F#\	-li	.	4d\	-li	4a\	-li	4aa\	-li	.	.	.	.
4D\	.	.	4dd\	.	4dd\	.	4D\	et	.	4f#\	et	4a\	et	4dd\	et	4d\yy	.	4f# 4d\	.
=28	=28	=28	=28	=28	=28	=28	=28	=28	=28	=28	=28	=28	=28	=28	=28	=28	=28	=28	=28
!	!	!	!LO:PB:g=original	!	!	!	!	!	!	!	!	!	!	!	!	!	!	!	!
!	!	!	!LO:TX:a:t=P:problem:nuta niepewna (defekt rkp)	!	!	!	!	!	!	!	!	!	!	!	!	!	!	!	!
4G\	4 2	.	8.ee\L	.	8.ee\L	.	4G\	ter-	.	4e\	ter-	4a\	ter-	4cc#\	ter-	4A/yy	.	4e 4A/	.
.	.	.	16dd\Jk	.	16cc#\Jk	.	.	.	.	.	.	.	.	.	.	.	.	.	.
4F#\	6	.	4dd\	.	4dd\	.	4F#\	-ra	.	4f#\	-ra	4a\	-ra	4dd\	-ra	4d\yy	.	4f# 4d\	.
!	!	!	!	!	!	!	!	!	!	!	!	!LO:TX:a:t=P:problem:znak repetycji na końcu taktu	!	!	!	!	!	!	!
4r	.	.	4r	.	4r	.	4r	.	.	4r	.	4r	.	4r	.	4ryy	.	4r	.
=29	=29	=29	=29	=29	=29	=29	=29	=29	=29	=29	=29	=29	=29	=29	=29	=29	=29	=29	=29
!	!	!	!	!	!	!	!	!	!	!	!	!	!	!LO:LB:g=original	!	!	!	!	!
*	*	*	*tremolo	*	*	*	*	*	*	*	*	*	*	*	*	*	*	*	*
!	!	!LO:DY:t=for.	!LO:TX:b:t=P:problem:pięć kropek pod nutą	!	!	!LO:DY:t=fo	!	!	!	!	!	!LO:TX:a:t=P:problem:takty 29-32 zapisane repetycją, z innym tekstem	!	!	!	!	!	!	!
8C#\L	.	f	16a'/LL	f	4a/	f	4C#/	glo-	.	4e\	glo-	4a\yy	glo-	4gg\	Glo-	2.A/	.	2.e 2.A/	.
.	.	.	16a'/	.	.	.	.	.	.	.	.	.	.	.	.	.	.	.	.
8A\	.	.	16a'/	.	.	.	.	.	.	.	.	.	.	.	.	.	.	.	.
.	.	.	16a'/JJ	.	.	.	.	.	.	.	.	.	.	.	.	.	.	.	.
8E\	.	.	16a/LL	.	2gg\	.	4C#/	-ri-	.	4e\	-ri-	4a\yy	-ri-	4gg\	-ri-	.	.	.	.
.	.	.	16a/	.	.	.	.	.	.	.	.	.	.	.	.	.	.	.	.
8A\	.	.	16a/	.	.	.	.	.	.	.	.	.	.	.	.	.	.	.	.
.	.	.	16a/JJ	.	.	.	.	.	.	.	.	.	.	.	.	.	.	.	.
8C#\	.	.	16a/LL	.	.	.	4C#/	-a	.	4e\	-a	4a\yy	-a	4gg\	-a	.	.	.	.
.	.	.	16a/	.	.	.	.	.	.	.	.	.	.	.	.	.	.	.	.
8A\J	.	.	16a/	.	.	.	.	.	.	.	.	.	.	.	.	.	.	.	.
.	.	.	16a/JJ	.	.	.	.	.	.	.	.	.	.	.	.	.	.	.	.
=30	=30	=30	=30	=30	=30	=30	=30	=30	=30	=30	=30	=30	=30	=30	=30	=30	=30	=30	=30
!	!	!	!	!	!	!	!LO:LB:g=original	!	!	!LO:LB:g=original	!	!	!	!	!	!	!	!	!
4D\	.	.	16a/LL	.	8gg\L	.	4D\	tu-	.	4d\	tu-	4a\yy	tu-	4ff#\	tu-	2d\	.	2f# 2d\	.
.	.	.	16a/	.	.	.	.	.	.	.	.	.	.	.	.	.	.	.	.
.	.	.	16a/	.	8ff#\	.	.	.	.	.	.	.	.	.	.	.	.	.	.
.	.	.	16a/JJ	.	.	.	.	.	.	.	.	.	.	.	.	.	.	.	.
4D\	.	.	16a/LL	.	8ee\	.	4D\	-a	.	4d\	-a	4a\yy	-a	4ff#\	-a	.	.	.	.
.	.	.	16a/	.	.	.	.	.	.	.	.	.	.	.	.	.	.	.	.
.	.	.	16a/	.	8dd\	.	.	.	.	.	.	.	.	.	.	.	.	.	.
.	.	.	16a/JJ	.	.	.	.	.	.	.	.	.	.	.	.	.	.	.	.
4r	.	.	16a/LL	.	8cc#\	.	4r	.	.	4r	.	4ryy	.	4r	.	4r	.	4r	.
.	.	.	16a/	.	.	.	.	.	.	.	.	.	.	.	.	.	.	.	.
.	.	.	16a/	.	8dd\J	.	.	.	.	.	.	.	.	.	.	.	.	.	.
.	.	.	16a/JJ	.	.	.	.	.	.	.	.	.	.	.	.	.	.	.	.
=31	=31	=31	=31	=31	=31	=31	=31	=31	=31	=31	=31	=31	=31	=31	=31	=31	=31	=31	=31
!	!	!	!	!	!	!	!	!	!	!	!	!	!	!LO:SIC:s=4.ee:v	!	!	!	!	!
*	*	*	*	*	*	*	*	*ij	*	*	*	*	*	*	*	*	*	*	*
8C#\L	.	.	16a/LL	.	4a/	.	4C#/	glo-	.	4e\	glo-	4a\yy	glo-	4.dd\	Glo-	2.A/	.	2.e 2.A/	.
.	.	.	16a/	.	.	.	.	.	.	.	.	.	.	.	.	.	.	.	.
8A\	.	.	16a/	.	.	.	.	.	.	.	.	.	.	.	.	.	.	.	.
.	.	.	16a/JJ	.	.	.	.	.	.	.	.	.	.	.	.	.	.	.	.
8E\	.	.	16a/LL	.	2gg\	.	4C#/	-ri-	.	4e\	-ri-	4a\yy	-ri-	.	.	.	.	.	.
.	.	.	16a/	.	.	.	.	.	.	.	.	.	.	.	.	.	.	.	.
!	!	!	!	!	!	!	!	!	!	!	!	!	!	!LO:SIC:s=8ee:v	!	!	!	!	!
8A\	.	.	16a/	.	.	.	.	.	.	.	.	.	.	8dd\	-ri-	.	.	.	.
.	.	.	16a/JJ	.	.	.	.	.	.	.	.	.	.	.	.	.	.	.	.
!	!	!	!	!	!	!	!	!	!	!	!	!	!	!LO:SIC:s=4ee:v	!	!	!	!	!
8C#\	.	.	16a/LL	.	.	.	4C#/	-a	.	4e\	-a	4a\yy	-a	4dd\	-a	.	.	.	.
.	.	.	16a/	.	.	.	.	.	.	.	.	.	.	.	.	.	.	.	.
8A\J	.	.	16a/	.	.	.	.	.	.	.	.	.	.	.	.	.	.	.	.
.	.	.	16a/JJ	.	.	.	.	.	.	.	.	.	.	.	.	.	.	.	.
=32	=32	=32	=32	=32	=32	=32	=32	=32	=32	=32	=32	=32	=32	=32	=32	=32	=32	=32	=32
4D\	.	.	16a/LL	.	8gg\L	.	4D\	tu-	.	4d\	tu-	4a\yy	tu-	4dd\	tu-	2d\	.	2f# 2d\	.
.	.	.	16a/	.	.	.	.	.	.	.	.	.	.	.	.	.	.	.	.
.	.	.	16a/	.	8ff#\	.	.	.	.	.	.	.	.	.	.	.	.	.	.
.	.	.	16a/JJ	.	.	.	.	.	.	.	.	.	.	.	.	.	.	.	.
4D\	.	.	16a/LL	.	8ee\	.	4D\	-a	.	4d\	-a	4a\yy	-a.	4dd\	-a	.	.	.	.
.	.	.	16a/	.	.	.	.	.	.	.	.	.	.	.	.	.	.	.	.
.	.	.	16a/	.	8dd\	.	.	.	.	.	.	.	.	.	.	.	.	.	.
.	.	.	16a/JJ	.	.	.	.	.	.	.	.	.	.	.	.	.	.	.	.
4r	.	.	16a/LL	.	8cc#\	.	4r	.	.	4r	.	4ryy	.	4r	.	4r	.	4r	.
.	.	.	16a/	.	.	.	.	.	.	.	.	.	.	.	.	.	.	.	.
.	.	.	16a/	.	8dd\J	.	.	.	.	.	.	.	.	.	.	.	.	.	.
.	.	.	16a/JJ	.	.	.	.	.	.	.	.	.	.	.	.	.	.	.	.
*	*	*	*Xtremolo	*	*	*	*	*	*	*	*	*	*	*	*	*	*	*	*
=33	=33	=33	=33	=33	=33	=33	=33	=33	=33	=33	=33	=33	=33	=33	=33	=33	=33	=33	=33
!	!	!	!	!	!	!	!	!	!	!	!	!	!	!LO:SIC:s=4.aa:v	!	!LO:TX:a:t=2	!	!LO:TX:a:t=2	!
!	!	!	!	!	!	!	!	!	!	!	!	!	!	!	!	!LO:N:vis=0	!	!LO:N:vis=0	!
*tremolo	*	*	*	*	*	*	*	*	*	*	*ij	*	*	*	*	*	*	*	*
8F#\L	6	.	2a/	.	2aa\	.	4.F#\	glo-	.	4.d\	glo-	4.a\	glo-	(4.gg\	Glo-	1.r	.	1.r	.
8F#\	.	.	.	.	.	.	.	.	.	.	.	.	.	.	.	.	.	.	.
8F#\	.	.	.	.	.	.	.	.	.	.	.	.	.	.	.	.	.	.	.
!	!	!	!	!	!	!	!	!	!	!	!	!	!	!LO:SIC:s=8gg:v	!	!	!	!	!
8F#\	.	.	.	.	.	.	8F#\	-ri-	.	8d\	-ri-	8a\	-ri-	8ff#\)	.	.	.	.	.
!	!	!	!	!	!	!	!	!	!	!	!	!	!	!LO:SIC:s=8ff:v	!	!	!	!	!
8F#\	.	.	(16g/LL	.	(16gg\LL	.	4F#\	-a	.	4d\	-a	4a\	-a	8ee\	-ri-	.	.	.	.
.	.	.	16f#/	.	16ff#\	.	.	.	.	.	.	.	.	.	.	.	.	.	.
!	!	!	!	!	!	!	!	!	!	!	!	!	!	!LO:SIC:s=8ee:v	!	!	!	!	!
8F#\J	.	.	16e/	.	16ee\	.	.	.	.	.	.	.	.	8dd\	-a	.	.	.	.
.	.	.	16d/JJ)	.	16dd\JJ)	.	.	.	.	.	.	.	.	.	.	.	.	.	.
=34	=34	=34	=34	=34	=34	=34	=34	=34	=34	=34	=34	=34	=34	=34	=34	=34	=34	=34	=34
!	!	!	!	!	!LO:LB:g=original	!	!	!	!	!	!	!	!	!	!	!	!	!	!
!	!	!	!	!	!	!	!	!	!	!	!	!	!	!LO:SIC:s=4cc:v	!	!	!	!	!
8G\L	5	.	(8c#/L	.	(8cc#\L	.	4G\	tu-	.	4B\	tu-	4g\	tu-	4dd\	tu-	.	.	.	.
8G\	.	.	8A/)	.	8b\	.	.	.	.	.	.	.	.	.	.	.	.	.	.
!	!	!	!	!	!	!	!	!	!	!	!	!	!	!LO:SIC:s=4b:v	!	!	!	!	!
8G\	.	.	(8A#X/	.	8a#X\	.	4G\	-a	.	4B\	-a	4g\	-a	4cc#\	-a	.	.	.	.
8G\	.	.	8B/)	.	8b\	.	.	.	.	.	.	.	.	.	.	.	.	.	.
!	!	!	!	!	!	!	!	!	!	!	!	!	!	!LO:TX:a:t=Vi *	!	!	!	!	!
8G\	.	.	(8A#/	.	8a#\)	.	4r	.	.	4r	.	4r	.	4r	.	.	.	.	.
8G\J	.	.	8B/J)	.	8b\J	.	.	.	.	.	.	.	.	.	.	.	.	.	.
=35	=35	=35	=35	=35	=35	=35	=35	=35	=35	=35	=35	=35	=35	=35	=35	=35	=35	=35	=35
!	!	!	!	!	!	!	!	!	!	!	!	!	!	!LO:SIC:s=4.gg:v	!	!	!	!	!
!	!	!	!	!	!	!	!	!	!	!	!	!	!	!LO:TX:a:t=De *	!	!	!	!	!
8G\L	.	.	4.b/	.	4.gg\	.	4.G\	glo-	.	4.d\	glo-	(4.b\	glo-	(4.ff#\	glo-	4r	.	4r	.
8G\	.	.	.	.	.	.	.	.	.	.	.	.	.	.	.	.	.	.	.
8G\	.	.	.	.	.	.	.	.	.	.	.	.	.	.	.	4r	.	4r	.
!	!	!	!	!	!	!	!	!	!	!	!	!	!	!LO:SIC:s=8ff:v	!	!	!	!	!
8G\	.	.	8a/	.	16ff#\LL	.	8G\	-ri-	.	8B\	-ri-	8a\	-ri-	8ee\)	.	.	.	.	.
.	.	.	.	.	16aa\JJ	.	.	.	.	.	.	.	.	.	.	.	.	.	.
!	!	!	!	!	!	!	!	!	!	!	!	!	!	!LO:SIC:s=8ee:v	!	!	!	!	!
8G\	.	.	16b/LL	.	(16gg\LL	.	4G\	-a	.	4B\	-a	8g\)	-a	8dd\	-ri-	8r	.	8r	.
.	.	.	16a/	.	16ff#\	.	.	.	.	.	.	.	.	.	.	.	.	.	.
!	!	!	!	!	!	!	!	!	!	!	!	!	!	!LO:SIC:s=8dd:v	!	!	!	!	!
8G\J	.	.	16g/	.	16ee\	.	.	.	.	.	.	8f#\	.	8cc#\	-a	8d\	.	8f# 8d\	.
.	.	.	16f#/JJ	.	16dd\JJ)	.	.	.	.	.	.	.	.	.	.	.	.	.	.
=36	=36	=36	=36	=36	=36	=36	=36	=36	=36	=36	=36	=36	=36	=36	=36	=36	=36	=36	=36
!	!	!	!LO:LB:g=original	!	!	!	!	!	!	!	!	!	!	!	!	!	!	!	!
!	!	!	!LO:TX:a:t=P:problem:nuta niepewna (defekt rkp)	!	!	!	!	!	!	!	!	!	!	!LO:SIC:s=4dd:v	!	!	!	!	!
.	.	.	.	.	8qqee/	.	.	.	.	.	.	.	.	.	.	.	.	.	.
4A\	4	.	4ryy	.	4dd\	.	4A\	tu-	.	4A\	tu-	4f#\	tu-	4cc#\	tu-	4d\	.	4f# 4d\	.
!	!	!	!	!	!	!	!	!	!	!	!	!	!	!LO:SIC:s=4cc:v	!	!	!	!	!
4AA/	3	.	4e/	.	8cc#\	.	4AA/	-a	.	4A\	-a	4e\	-a	4b\	-a	4A/	.	4e 4A/	.
*	*	*	*	*	*	*	*	*Xij	*	*	*Xij	*	*	*	*	*	*	*	*
.	.	.	.	.	8r	.	.	.	.	.	.	.	.	.	.	.	.	.	.
4r	.	.	4r	.	4r	.	4r	.	.	4r	.	4r	.	4ryy	.	4r	.	4r	.
=37	=37	=37	=37	=37	=37	=37	=37	=37	=37	=37	=37	=37	=37	=37	=37	=37	=37	=37	=37
!	!	!	!LO:TX:a:t=1	!	!LO:TX:a:t=1	!	!	!	!	!	!	!	!	!	!	!	!	!LO:LB:g=original	!
!	!	!	!LO:N:vis=1	!	!LO:N:vis=1	!	!	!	!	!	!	!LO:TX:a:t=P:problem:znak repetycji na początku taktu	!	!	!	!	!	!	!
4c#\	6	.	2.r	.	2.r	.	4c#\	Ple-	.	4c#\	Ple-	4a\	ple-	4ee\	Ple-	2A/	.	2e 2A/	.
4A\	.	.	.	.	.	.	4A\	-ni	.	4c#\	-ni	4a\	-ni	4ee\	-ni	.	.	.	.
4d\	.	.	.	.	.	.	4d\	sunt	.	4d\	sunt	4a\	sunt	4ff#\	sunt	4d\	.	4f# 4d\	.
=38	=38	=38	=38	=38	=38	=38	=38	=38	=38	=38	=38	=38	=38	=38	=38	=38	=38	=38	=38
!LO:LB:g=original	!	!	!	!	!	!	!	!	!	!	!	!	!	!	!	!	!	!	!
!	!	!	!	!	!LO:TX:a:t=P:problem:znak repetycji na początku taktu	!	!	!	!	!	!	!	!	!	!	!	!	!	!
4c#\	.	.	(8a\L	.	(8cc#\L	f	4c#\	Coe-	.	4c#\	Coe-	4a\	coe-	4ee\	Coe-	4A/	.	4e 4A/	.
.	.	.	8cc#\)	.	8ee\	.	.	.	.	.	.	.	.	.	.	.	.	.	.
4A\	.	.	(8cc#\	.	8aa\	.	4A\	-li	.	4e\	-li	4a\	-li	4cc#\	-li	4A/	.	4e 4A/	.
.	.	.	8ee\)	.	8ccc#\	.	.	.	.	.	.	.	.	.	.	.	.	.	.
4r	.	.	(8ff#\	.	8ddd\	.	4r	.	.	4r	.	4r	.	4r	.	4r	.	4r	.
!	!	!	!	!	!	!	!	!	!	!	!	!LO:TX:a:t=P:problem:znak repetycji na końcu taktu	!	!	!	!	!	!	!
.	.	.	8dd\J)	.	8bb\J	.	.	.	.	.	.	.	.	.	.	.	.	.	.
=39	=39	=39	=39	=39	=39	=39	=39	=39	=39	=39	=39	=39	=39	=39	=39	=39	=39	=39	=39
*	*	*	*	*	*	*	*	*	*	*	*	*	*	*	*	*	*	*^	*
!	!	!	!	!	!	!	!	!	!	!	!	!LO:TX:a:t=P:problem:takty 39-40 zapisane repetycją	!	!	!	!	!	!	!	!
4c#\	6	.	4cc#\	.	4aa\	.	4c#\	Coe-	.	4c#\	coe-	4a\yy	ple-	4ee\	Coe-	2A/	.	2e 2A/	4ryy	.
4A\	.	.	4cc#\	.	4a/	.	4A\	-li	.	4c#\	-li	4a\yy	-ni	4ee\	-li	.	.	.	4ryy	.
!	!	!	!	!	!LO:TX:a:t=P:problem:znak repetycji na końcu taktu	!	!	!	!	!	!	!	!	!	!	!	!	!	!	!
4d\	.	.	4r	.	4r)	.	4d\	et	.	4d\	et	4a\yy	sunt	4ff#\	et	4d\	.	4f#/	4d\	.
*	*	*	*	*	*	*	*	*	*	*	*	*	*	*	*	*	*	*v	*v	*
=40	=40	=40	=40	=40	=40	=40	=40	=40	=40	=40	=40	=40	=40	=40	=40	=40	=40	=40	=40
!	!	!	!	!	!	!	!LO:LB:g=original	!	!	!	!	!	!	!	!	!	!	!	!
!	!	!	!	!	!LO:TX:a:t=P:problem:takty 40-41 zapisane repetycją	!	!	!	!	!	!	!	!	!	!	!	!	!	!
4c#\	.	.	8a\L	.	(8cc#\Lyy	f	4c#\	ter-	.	4c#\	ter-	4a\yy	coe-	4ee\	ter-	4A/	.	4e 4A/	.
.	.	.	8cc#\	.	8ee\yy	.	.	.	.	.	.	.	.	.	.	.	.	.	.
4A\	.	.	8cc#\	.	8aa\yy	.	4A\	-ra	.	4e\	-ra	4a\yy	-li	4cc#\	-ra	4A/	.	4e 4A/	.
.	.	.	8ee\	.	8ccc#\yy	.	.	.	.	.	.	.	.	.	.	.	.	.	.
4r	.	.	8ff#\	.	8ddd\yy	.	4r	.	.	4r	.	4ryy	.	4r	.	4r	.	4r	.
.	.	.	8dd\J	.	8bb\Jyy	.	.	.	.	.	.	.	.	.	.	.	.	.	.
=41	=41	=41	=41	=41	=41	=41	=41	=41	=41	=41	=41	=41	=41	=41	=41	=41	=41	=41	=41
!	!	!	!	!	!	!	!	!	!	!LO:LB:g=original	!	!	!	!	!	!	!	!	!
4A\	4+r	.	4cc#\	.	4aa\yy	.	4A\	Ple-	.	4e\	Ple-	4a\	coe-	4cc#\	ple-	2A/	.	2e 2A/	.
4A\	.	.	4cc#\	.	4a/yy	.	4A\	-ni	.	4e\	-ni	4a\	-li	4cc#\	-ni	.	.	.	.
4A\	.	.	4r	.	4r)yy	.	4A\	sunt	.	4e\	sunt	4a\	et	4cc#\	sunt	4A/	.	4e 4A/	.
=42	=42	=42	=42	=42	=42	=42	=42	=42	=42	=42	=42	=42	=42	=42	=42	=42	=42	=42	=42
!	!	!	!	!	!	!	!	!	!	!	!	!LO:LB:g=original	!	!	!	!	!	!	!
!	!	!	!	!	!	!	!	!	!	!	!	!	!	!	!	!LO:TX:b:t=Vi	!	!	!
*	*	*	*tremolo	*	*	*	*	*	*	*	*	*	*	*	*	*	*	*	*
4G\	6	.	16aLL 16e/	.	4.aa\	f	2G\	Coe-	.	2e\	coe-	2a\	ter-	2cc#\	Coe-	2.A/	.	2.e 2.A/	.
.	.	.	16a 16e/	.	.	.	.	.	.	.	.	.	.	.	.	.	.	.	.
.	.	.	16a 16e/	.	.	.	.	.	.	.	.	.	.	.	.	.	.	.	.
.	.	.	16a 16e/	.	.	.	.	.	.	.	.	.	.	.	.	.	.	.	.
4G\	6	.	16a 16e/	.	.	.	.	.	.	.	.	.	.	.	.	.	.	.	.
.	.	.	16a 16e/	.	.	.	.	.	.	.	.	.	.	.	.	.	.	.	.
.	.	.	16a 16e/	.	8cc#\	.	.	.	.	.	.	.	.	.	.	.	.	.	.
.	.	.	16a 16e/	.	.	.	.	.	.	.	.	.	.	.	.	.	.	.	.
4G\	.	.	16a 16e/	.	8.cc#t\L	.	4G\	-li	.	4e\	-li	4a\	-ra	4cc#\	-li	.	.	.	.
.	.	.	16a 16e/	.	.	.	.	.	.	.	.	.	.	.	.	.	.	.	.
.	.	.	16a 16e/	.	.	.	.	.	.	.	.	.	.	.	.	.	.	.	.
*	*	*	*	*	*32\right	*	*	*	*	*	*	*	*	*	*	*	*	*	*
.	.	.	16aJJ 16e/	.	32b\LL	.	.	.	.	.	.	.	.	.	.	.	.	.	.
.	.	.	.	.	32cc#\JJJ	.	.	.	.	.	.	.	.	.	.	.	.	.	.
*	*	*	*Xtremolo	*	*	*	*	*	*	*	*	*	*	*	*	*	*	*	*
=43	=43	=43	=43	=43	=43	=43	=43	=43	=43	=43	=43	=43	=43	=43	=43	=43	=43	=43	=43
!	!	!	!	!	!	!	!	!	!	!	!	!	!	!	!	!LO:TX:a:t=DE	!	!	!
4F#\	.	.	4a\	.	4dd\	.	4F#\	Coe-	.	4f#\	coe-	4a\	coe-	4dd\	Coe-	4d\	.	4f# 4d\	f
4E\	.	.	4cc#\	.	4gg\	.	4E\	-li	.	4c#\	-li	4a\	-li	4ee\	-li	4e\	.	4g 4e\	.
4D\	.	.	4dd\	.	4ff#\	.	4D\	et	.	4d\	et	4a\	et	4ff#\	et	4d\	.	4f# 4d\	.
=44	=44	=44	=44	=44	=44	=44	=44	=44	=44	=44	=44	=44	=44	=44	=44	=44	=44	=44	=44
.	.	.	.	.	8qqgg/	.	.	.	.	.	.	.	.	.	.	.	.	.	.
4A\	.	.	4dd\	.	4ff#\	.	4A\	ter-	.	4d\	ter-	4a\	ter-	4ff#\	ter-	4d\	.	4f# 4d\	.
4AA/	.	.	4cc#\	.	4ee\	.	4AA/	-ra	.	4c#\	-ra	4a\	-ra	4ee\	-ra	4A/	.	4e 4A/	.
4r	.	.	4r	.	4r	.	4r	.	.	4r	.	4r	.	4r	.	4r	.	4r	.
=45	=45	=45	=45	=45	=45	=45	=45	=45	=45	=45	=45	=45	=45	=45	=45	=45	=45	=45	=45
!	!	!	!	!	!	!	!	!	!	!	!	!	!	!LO:LB:g=original	!	!LO:LB:g=original	!	!	!
!	!	!	!	!	!	!	!	!	!	!LO:TX:a:t=P:problem:znak repetycji na początku taktu	!	!LO:TX:a:t=P:problem:znak repetycji na początku taktu	!	!	!	!	!	!	!LO:DY:t=p.
4D\	.	mf	4.dd\	mf	4.ff#\	mf	8d\	glo-	.	4.d\	glo-	8a\	glo-	4.ff#\	Glo-	4d\	.	4f# 4d\	p
.	.	.	.	.	.	.	8d\	-ri-	.	.	.	8a\	-ri-	.	.	.	.	.	.
4d\	.	.	.	.	.	.	4D/	-a	.	.	.	4a\	-a	.	.	4d\	.	4f# 4d\	.
.	.	.	8ee\	.	8gg\	.	.	.	.	8e\	-ri-	.	.	8gg\	-ri-	.	.	.	.
4r	.	.	4dd\	.	4ff#\	.	4r	.	.	4d\	-a	4r	.	4ff#\	-a	4r	.	4r	.
=46	=46	=46	=46	=46	=46	=46	=46	=46	=46	=46	=46	=46	=46	=46	=46	=46	=46	=46	=46
!	!	!	!	!	!	!	!	!	!	!	!	!	!	!	!	!	!LO:DY:t=p	!	!
*	*	*	*	*	*	*	*	*	*	*	*ij	*	*ij	*	*	*	*	*	*
4BB/	5	.	4.dd\	.	4.ff#\	.	8B\	glo-	.	4.d\	glo-	8b\	glo-	4.ff#\	glo-	4d\	p	4f# 4d\	.
.	.	.	.	.	.	.	8B\	-ri-	.	.	.	8b\	-ri-	.	.	.	.	.	.
4B\	.	.	.	.	.	.	4BB/	-a	.	.	.	4b\	-a	.	.	4d\	.	4f# 4d\	.
*	*	*	*	*	*	*	*	*	*	*	*	*	*Xij	*	*	*	*	*	*
.	.	.	8cc#\	.	8ee\	.	.	.	.	8c#\	-ri-	.	.	8ee\	-ri-	.	.	.	.
4r	.	.	4b\	.	4dd\	.	4r	.	.	4B\	-a	4r	.	4dd\	-a	4r	.	4r	.
=47	=47	=47	=47	=47	=47	=47	=47	=47	=47	=47	=47	=47	=47	=47	=47	=47	=47	=47	=47
!	!	!	!LO:LB:g=original	!	!	!	!	!	!	!	!	!	!	!	!	!	!	!	!
!	!	!	!	!	!	!	!	!	!	!	!	!	!	!	!	!	!LO:DY:t=p	!	!
*	*	*	*	*	*	*	*	*ij	*	*	*	*	*	*	*	*	*	*	*
4GG/	6	.	4.ee\	.	4.gg\	.	8G\	glo-	.	4.e\	glo-	8b\	glo-	4.gg\	Glo-	4e\	p	4g 4e\	.
.	.	.	.	.	.	.	8G\	-ri-	.	.	.	8b\	-ri-	.	.	.	.	.	.
4G\	.	.	.	.	.	.	4GG/	-a	.	.	.	4b\	-a	.	.	4e\	.	4g 4e\	.
.	.	.	8ff#\	.	8aa\	.	.	.	.	8f#\	-ri-	.	.	8aa\	-ri-	.	.	.	.
4r	.	.	4ee\	.	4gg\	.	4r	.	.	4e\	-a	4r	.	4gg\	-a	4r	.	4r	.
=48	=48	=48	=48	=48	=48	=48	=48	=48	=48	=48	=48	=48	=48	=48	=48	=48	=48	=48	=48
!	!	!	!	!	!LO:PB:g=original	!	!	!	!	!	!	!	!	!	!	!	!	!	!
!	!	!	!	!	!	!	!	!	!	!	!	!	!	!	!	!	!LO:DY:t=p	!	!
*	*	*	*	*	*	*	*	*	*	*	*	*	*ij	*	*	*	*	*	*
4AA/	7	.	4.ee\	.	4.gg\	.	8A\	glo-	.	4.e\	glo-	8a\	glo-	4.gg\	Glo-	4e\	p	4g 4e\	.
.	.	.	.	.	.	.	8A\	-ri-	.	.	.	8a\	-ri-	.	.	.	.	.	.
4A\	.	.	.	.	.	.	4AA/	-a	.	.	.	4a\	-a	.	.	4e\	.	4g 4e\	.
*	*	*	*	*	*	*	*	*Xij	*	*	*	*	*Xij	*	*	*	*	*	*
.	.	.	8dd\	.	8ff#\	.	.	.	.	8d\	-ri-	.	.	8ff#\	-ri-	.	.	.	.
!	!	!	!LO:N:vis=8	!	!	!	!	!	!	!	!	!	!	!	!	!	!	!	!
4r	.	.	4cc#\	.	4dd\	.	4r	.	.	4c#\	-a	4r	.	4ee\	-a	4r	.	4r	.
*	*	*	*	*	*	*	*	*	*	*	*Xij	*	*	*	*	*	*	*	*
=49	=49	=49	=49	=49	=49	=49	=49	=49	=49	=49	=49	=49	=49	=49	=49	=49	=49	=49	=49
4B\	.	f	4dd\	.	4dd\	.	4B\	tu-	.	4d\	tu-	4f#\	tu-	(4dd\	tu-	4d\	f	4f# 4d\	.
4G\	6	.	4b\	.	4ee\	.	4G\	.	.	4g\	.	4b\	.	4ee\)	.	4e\	.	4g 4e\	.
4A\	.	.	4e/	.	4cc#\	.	4A\	.	.	4e\	.	4a\	.	4cc#\	.	4A/	.	4e 4A/	.
=50	=50	=50	=50	=50	=50	=50	=50	=50	=50	=50	=50	=50	=50	=50	=50	=50	=50	=50	=50
!	!	!	!	!	!	!	!LO:LB:g=original	!	!	!	!	!	!	!	!	!	!	!LO:LB:g=original	!
2.D\	.	.	8f#/L	.	8dd\L	.	2D\	-a	.	2f#\	-a	2a\	-a	2dd\	-a	2d\	.	2f# 2d\	.
.	.	.	8f#/	.	8a\	.	.	.	.	.	.	.	.	.	.	.	.	.	.
.	.	.	8g/	.	8b\	.	.	.	.	.	.	.	.	.	.	.	.	.	.
.	.	.	8a/	.	8cc#\	.	.	.	.	.	.	.	.	.	.	.	.	.	.
.	.	.	8b/	.	8dd\	.	4r	.	.	4r	.	4r	.	4r	.	4r	.	4r	.
!	!	!	!	!	!	!	!	!	!	!LO:TX:a:t=P:problem:znak repetycji na końcu taktu	!	!LO:TX:a:t=P:problem:znak repetycji na końcu taktu	!	!	!	!	!	!	!
.	.	.	8cc#/J	.	8ee\J	.	.	.	.	.	.	.	.	.	.	.	.	.	.
=51	=51	=51	=51	=51	=51	=51	=51	=51	=51	=51	=51	=51	=51	=51	=51	=51	=51	=51	=51
!	!	!	!	!	!	!	!	!	!	!LO:TX:a:t=P:problem:takty 51-56 zapisane repetycją	!	!LO:TX:a:t=P:problem:takty 51-56 zapisane repetycją	!	!	!	!LO:TX:a:t=8	!	!LO:TX:a:t=8	!
!	!	!LO:DY:rj	!	!LO:DY:t=p.	!	!LO:DY:t=p.	!	!	!LO:DY:b	!	!	!	!	!	!	!LO:N:vis=00	!	!LO:N:vis=00	!
4D\	.	p	4.dd\	p	4.ff#\	p	8d\	Glo-	p	4.d\yy	glo-	8a\yy	glo-	4.ff#\	Glo-	0.r	.	0.r	.
.	.	.	.	.	.	.	8d\	-ri-	.	.	.	8a\yy	-ri-	.	.	.	.	.	.
4d\	.	.	.	.	.	.	4D\	-a	.	.	.	4a\yy	-a	.	.	.	.	.	.
.	.	.	8ee\	.	8gg\	.	.	.	.	8e\yy	-ri-	.	.	8gg\	-ri-	.	.	.	.
4r	.	.	4dd\	.	4ff#\	.	4r	.	.	4d\yy	-a	4ryy	.	4ff#\	-a	.	.	.	.
=52	=52	=52	=52	=52	=52	=52	=52	=52	=52	=52	=52	=52	=52	=52	=52	=52	=52	=52	=52
*	*	*	*	*	*	*	*	*ij	*	*	*ij	*	*ij	*	*	*	*	*	*
4BB/	5	.	4.dd\	.	4.ff#\	.	8B\	Glo-	.	4.d\yy	glo-	8b\yy	glo-	4.ff#\	Glo-	.	.	.	.
.	.	.	.	.	.	.	8B\	-ri-	.	.	.	8b\yy	-ri-	.	.	.	.	.	.
4B\	.	.	.	.	.	.	4BB/	-a	.	.	.	4b\yy	-a	.	.	.	.	.	.
*	*	*	*	*	*	*	*	*	*	*	*	*	*Xij	*	*	*	*	*	*
.	.	.	8cc#\	.	8ee\	.	.	.	.	8c#\yy	-ri-	.	.	8ee\	-ri-	.	.	.	.
4r	.	.	4b\	.	4dd\	.	4r	.	.	4B\yy	-a	4ryy	.	4dd\	-a	.	.	.	.
=53	=53	=53	=53	=53	=53	=53	=53	=53	=53	=53	=53	=53	=53	=53	=53	=53	=53	=53	=53
!LO:LB:g=original	!	!	!	!	!	!	!	!	!	!	!	!	!	!	!	!	!	!	!
4GG/	5 6	.	4.ee\	.	4.gg\	.	8G\	Glo-	.	4.e\yy	glo-	8b\yy	glo-	4.gg\	Glo-	.	.	.	.
.	.	.	.	.	.	.	8G\	-ri-	.	.	.	8b\yy	-ri-	.	.	.	.	.	.
4G\	.	.	.	.	.	.	4GG/	-a	.	.	.	4b\yy	-a	.	.	.	.	.	.
.	.	.	8ff#\	.	8aa\	.	.	.	.	8f#\yy	-ri-	.	.	8aa\	-ri-	.	.	.	.
4r	.	.	4ee\	.	4gg\	.	4r	.	.	4e\yy	-a	4ryy	.	4gg\	-a	.	.	.	.
=54	=54	=54	=54	=54	=54	=54	=54	=54	=54	=54	=54	=54	=54	=54	=54	=54	=54	=54	=54
*	*	*	*	*	*	*	*	*	*	*	*	*	*ij	*	*	*	*	*	*
4AA/	7	.	4.ee\	.	4.gg\	.	8A\	Glo-	.	4.e\yy	glo-	8a\yy	glo-	4.gg\	Glo-	.	.	.	.
.	.	.	.	.	.	.	8A\	-ri-	.	.	.	8a\yy	-ri-	.	.	.	.	.	.
4A\	.	.	.	.	.	.	4AA/	-a	.	.	.	4a\yy	-a	.	.	.	.	.	.
*	*	*	*	*	*	*	*	*Xij	*	*	*	*	*Xij	*	*	*	*	*	*
.	.	.	8dd\	.	8ff#\	.	.	.	.	8d\yy	-ri-	.	.	8ff#\	-ri-	.	.	.	.
4r	.	.	4cc#\	.	4ee\	.	4r	.	.	4c#\yy	-a	4ryy	.	4ee\	-a	.	.	.	.
*	*	*	*	*	*	*	*	*	*	*	*Xij	*	*	*	*	*	*	*	*
=55	=55	=55	=55	=55	=55	=55	=55	=55	=55	=55	=55	=55	=55	=55	=55	=55	=55	=55	=55
!	!	!	!	!	!	!	!	!	!	!	!	!	!	!	!	!LO:N:vis=00	!	!LO:N:vis=00	!
4B\	5	.	4dd\	.	4dd\	.	4B\	tu-	.	4d\yy	tu-	4f#\yy	tu-	(4dd\	tu-	0.r	.	0.r	.
4G\	6	.	4b\	.	4ee\	.	4G\	.	.	4g\yy	.	4b\yy	.	4ee\	.	.	.	.	.
4A\	.	.	4e/	.	4cc#\	.	4A\	.	.	4e\yy	.	4a\yy	.	4cc#\)	.	.	.	.	.
=56	=56	=56	=56	=56	=56	=56	=56	=56	=56	=56	=56	=56	=56	=56	=56	=56	=56	=56	=56
.	.	.	.	.	.	.	.	.	.	.	.	.	.	8qqcc#/	.	.	.	.	.
!	!	!	!LO:TX:b:t=P:problem:być może "ffortefinal", przechodzi w falę do końca szesnastek	!	!LO:TX:b:t=P:problem:"for"przechodzi w długą falę	!	!	!	!	!	!	!	!	!	!	!	!	!	!
8d\L	3	f	16ff#\LL	ff	16ff#\LL	f	2D\	-a	.	2f#\yy	-a	2a\yy	-a	2dd\	-a	.	.	.	.
.	.	.	16ff#\	.	16ff#\	.	.	.	.	.	.	.	.	.	.	.	.	.	.
8c#\	3	.	16ee#X\	.	16ee#X\	.	.	.	.	.	.	.	.	.	.	.	.	.	.
.	.	.	16ee#\JJ	.	16ee#\JJ	.	.	.	.	.	.	.	.	.	.	.	.	.	.
8d\	3	.	16ff#\LL	.	16ff#\LL	.	.	.	.	.	.	.	.	.	.	.	.	.	.
.	.	.	16ff#\	.	16ff#\	.	.	.	.	.	.	.	.	.	.	.	.	.	.
8c#\	3	.	16een\	.	16een\	.	.	.	.	.	.	.	.	.	.	.	.	.	.
.	.	.	16ee\JJ	.	16ee\JJ	.	.	.	.	.	.	.	.	.	.	.	.	.	.
!	!	!	!LO:LB:g=original	!	!	!	!	!	!	!	!	!	!	!	!	!	!	!	!
!	!	!	!LO:TX:a:t=P:problem:nuta niepewna (defekt rkp)	!	!	!	!	!	!	!	!	!	!	!	!	!	!	!	!
8B\	3	.	16dd\LLyy	.	16dd\LL	.	4r	.	.	4ryy	.	4ryy	.	4r	.	.	.	.	.
.	.	.	16dd\	.	16dd\	.	.	.	.	.	.	.	.	.	.	.	.	.	.
8A#X\J	3	.	16cc#\	.	16cc#\	.	.	.	.	.	.	.	.	.	.	.	.	.	.
.	.	.	16cc#\JJ	.	16cc#\JJ	.	.	.	.	.	.	.	.	.	.	.	.	.	.
=57	=57	=57	=57	=57	=57	=57	=57	=57	=57	=57	=57	=57	=57	=57	=57	=57	=57	=57	=5
!	!	!	!	!	!	!	!LO:TX:a:t=2	!	!	!LO:TX:a:t=2	!	!LO:TX:a:t=2	!	!	!	!	!	!	!
!	!	!	!	!	!	!	!LO:N:vis=0	!	!	!LO:N:vis=0	!	!LO:N:vis=0	!	!LO:N:vis=0	!	!	!	!	!
8B\L	3	.	16dd\LL	.	16dd\LL	.	1.r	.	.	1.r	.	1.r	.	1.r	.	.	.	.	.
.	.	.	16dd\	.	16dd\	.	.	.	.	.	.	.	.	.	.	.	.	.	.
!LO:SIC:s=8A#:v	!	!	!	!	!	!	!	!	!	!	!	!	!	!	!	!	!	!	!
8A\	3	.	16cc#\	.	16cc#\	.	.	.	.	.	.	.	.	.	.	.	.	.	.
.	.	.	16cc#\JJ	.	16cc#\JJ	.	.	.	.	.	.	.	.	.	.	.	.	.	.
8B\	3	.	16dd\LL	.	16dd\LL	.	.	.	.	.	.	.	.	.	.	.	.	.	.
.	.	.	16dd\	.	16dd\	.	.	.	.	.	.	.	.	.	.	.	.	.	.
8An\	3	.	16cc#\	.	16cc#\	.	.	.	.	.	.	.	.	.	.	.	.	.	.
.	.	.	16cc#\JJ	.	16cc#\JJ	.	.	.	.	.	.	.	.	.	.	.	.	.	.
8G\	3	.	16b\LL	.	16b\LL	.	.	.	.	.	.	.	.	.	.	.	.	.	.
.	.	.	16b\	.	16b\	.	.	.	.	.	.	.	.	.	.	.	.	.	.
8F#\J	3	.	16a#X\	.	16a#X\	.	.	.	.	.	.	.	.	.	.	.	.	.	.
.	.	.	16a#\JJ	.	16a#\JJ	.	.	.	.	.	.	.	.	.	.	.	.	.	.
=58	=58	=58	=58	=58	=58	=58	=58	=58	=58	=58	=58	=58	=58	=58	=58	=58	=58	=58	=58
!	!	!	!	!	!LO:LB:g=original	!	!	!	!	!	!	!	!	!	!	!	!	!	!
8G\L	3_	.	16b\LL	.	16b/LL	.	.	.	.	.	.	.	.	.	.	.	.	.	.
.	.	.	16b\	.	16b/	.	.	.	.	.	.	.	.	.	.	.	.	.	.
8F#\	.	.	16a#X\	.	16a#X/	.	.	.	.	.	.	.	.	.	.	.	.	.	.
.	.	.	16a#\JJ	.	16a#/JJ	.	.	.	.	.	.	.	.	.	.	.	.	.	.
8G\	.	.	16b\LL	.	16b/LL	.	.	.	.	.	.	.	.	.	.	.	.	.	.
.	.	.	16b\	.	16b/	.	.	.	.	.	.	.	.	.	.	.	.	.	.
8F#\	.	.	16an\	.	16an/	.	.	.	.	.	.	.	.	.	.	.	.	.	.
.	.	.	16a\JJ	.	16a/JJ	.	.	.	.	.	.	.	.	.	.	.	.	.	.
8E\	.	.	16g/LL	.	16g/LL	.	.	.	.	.	.	.	.	.	.	.	.	.	.
.	.	.	16g/	.	16g/	.	.	.	.	.	.	.	.	.	.	.	.	.	.
8D#X\J	.	.	16f#/	.	16f#/	.	.	.	.	.	.	.	.	.	.	.	.	.	.
.	X	.	16f#/JJ	.	16f#/JJ	.	.	.	.	.	.	.	.	.	.	.	.	.	.
=59	=59	=59	=59	=59	=59	=59	=59	=59	=59	=59	=59	=59	=59	=59	=59	=59	=59	=59	=59
!	!	!	!	!LO:DY:t=mf	!	!	!	!	!	!	!	!	!	!	!	!	!	!	!
4E\	.	.	4g/	mf	4g/	.	4E\	O-	.	4e\	O-	4b\	O-	4gg\	O-	4r	.	4r	.
4BB/	6 5	.	4ee\	.	4gg\	.	4C#\	-san-	.	4e\	-san-	4a\	-san-	4gg\	-san-	4e\	f	4g 4e\	f
4D/	3	.	4cc#\	.	4ff#\	.	4D\	-na	.	4d\	-na	4a\	-na	4ff#\	-na	4d\	.	4f# 4d\	.
=60	=60	=60	=60	=60	=60	=60	=60	=60	=60	=60	=60	=60	=60	=60	=60	=60	=60	=60	=60
!	!	!	!	!	!	!	!	!	!	!LO:LB:g=original	!	!	!	!LO:LB:g=original	!	!	!	!	!
!	!	!	!LO:TX:a:t=P:problem:mixed beam	!	!LO:TX:a:t=P:problem:mixed beam	!	!	!	!	!	!	!	!	!	!	!	!	!	!
4G\	6	.	8ee\L	.	8ee\L	.	8G\	in	.	8g\	in	8b\	in	8ee\	in	4e\	.	4g 4e\	.
.	.	.	8g/	.	8g/	.	8G\	ex-	.	8g\	ex-	8b\	ex-	8ee\	ex-	.	.	.	.
4A\	4	.	8f#/	.	8f#/	.	(4A\	-cel-	.	4f#\	-cel-	2a\	-cel-	(4dd\	-cel-	4d\	.	4f# 4d\	.
.	3	.	8dd/	.	8dd\	.	.	.	.	.	.	.	.	.	.	.	.	.	.
4AA/	.	.	8e/	.	8e/	.	4AA/)	.	.	4e\	.	.	.	4cc#\)	.	4A/	.	4e 4A/	.
.	.	.	8cc#/J	.	8cc#\J	.	.	.	.	.	.	.	.	.	.	.	.	.	.
=61	=61	=61	=61	=61	=61	=61	=61	=61	=61	=61	=61	=61	=61	=61	=61	=61	=61	=61	=61
!	!	!	!	!	!	!	!LO:LB:g=original	!	!	!	!	!	!	!	!	!	!	!	!
*	*	*	*^	*	*	*	*	*	*	*	*	*	*	*	*	*	*	*	*
4D\	.	.	4dd/	4dd\	.	4dd\	.	2D\	-siſ	.	2f#\	-siſ	2a\	-sis.	2dd\	-sis	4F#/	.	4d 4F#/	.
4r	.	.	4r	4ryy	f	4r	f	.	.	.	.	.	.	.	.	.	4r	.	4r	.
!	!	!	!	!	!	!	!	!	!	!	!	!	!	!	!LO:TX:b:i:t=Benedictus Tacet Osanna ut Pleni\nAlto Solo	!	!	!	!	!
4A\	.	.	4e 4A/	4cc#/	.	4aa 4cc# 4e/	.	4r	.	.	4r	.	4r	.	4r	.	4A/	.	4e 4A/	.
*	*	*	*v	*v	*	*	*	*	*	*	*	*	*	*	*	*	*	*	*	*
=62	=62	=62	=62	=62	=62	=62	=62	=62	=62	=62	=62	=62	=62	=62	=62	=62	=62	=62	=62
!	!	!	!LO:SIC:n=1:s=2dd:n=2:s=2f#:v	!	!	!	!	!	!	!LO:TX:a:t=1	!	!LO:TX:a:t=1	!	!	!	!	!	!	!
!	!	!	!LO:TX:a:t=P:problem:poprawka ołówkiem na prawidłowy akord	!	!	!	!	!	!	!LO:N:vis=1	!	!LO:N:vis=1	!	!LO:TX:a:t=P:problem:brak taktu	!	!	!	!	!
2.D\	.	.	2cc# 2e 2A/	.	2.ff# 2.a 2.d/	.	2.r	.	.	2.r	.	2.r	.	2.ryy	.	2.d\	.	2.f# 2.d\	.
!	!	!	!	!	!	!	!LO:TX:b:i:t=Benedictus Tacet	!	!	!LO:TX:b:i:t=Benedictus Tacet Osanna ut Pleni	!	!	!	!	!	!LO:TX:b:i:t=Bene Tacet\nosuna Pleni	!	!LO:TX:b:i:t=Benedictus Tacet | Osanna ut Pleni	!
.	.	.	4r	.	.	.	.	.	.	.	.	.	.	.	.	.	.	.	.
==	==	==	==	==	==	==	==	==	==	==	==	==	==	==	==	==	==	==	==
*-	*-	*-	*-	*-	*-	*-	*-	*-	*-	*-	*-	*-	*-	*-	*-	*-	*-	*-	*-
!!!system-decoration: [g1][g2][g3]s9
!!!RDF**kern: > = above
!!!RDF**kern: < = below
!!!RDF**dynam: < = "Cres:"
!!!RDF**dynam: f = "for"
!!!RDF**dynam: mf = "mf."
!!!RDF**dynam: p = "p:"
!!!ENC: Krzysztof Stępień
!!!END: 2020-03-17
!!!ENC: Marta Lawrence
!!!END: 2020-05-18
